-----BEGIN PGP PUBLIC KEY BLOCK-----

mQINBF6V3oEBEADExzr1s9YngScJ0KNMGen7k3cH1sn0h7tf7AFlXA94jXBgFyzI
MT5lqey09LwcO6AIkFF+gRVAKIblkeacsy5W6OQXgdFMitx936oAcU0XYQ2X5NxC
QHzEsWYzkLIZnFTBUr3CW9HtAjAircED5KVJzA1GM8BEFfG3LoonWsw0CO9UN2ar
wT1uLARSPgL6LPpmo1IOSwJhD6vtOyzlRrLkw4KHzUobEiIjxzjXttH8TC3I6OSb
8kavG08cmA+DMf/nLFxK0QbdOP2wSZ0wUTU6RBikuLmDBaT4PphuwtAgVwhO9l0P
NRoYzugrXuRF0RCLpmJN05tz/o/w7Y8ieLgQE8OmxGKXJyo0T4wlUl9ARM9Y0ZIR
hdI1alFspBcF63oyZmOAT+2fPLr6W0fEfmtMBhDaZun2ZdKRM1JwTTkh8jVLs3sv
M3Ch2JjiH0kgYA0oza5fXaB9s4Fa4fxpmacx8fawKR5r/BhmYNK15PPdYxIZJqnT
JgCDI2G4tQ9K+Eev1rBo6i8n96rDqxTxdyQixMhxMmGtj6/bknpVIN947ABKDHdt
UsWa4E+qwFrYDXT7RxhL+JGn4VrtIR1kpTJHfmVXnn+RW7JKdDkalvEuXJSOArsz
cgpDlYRq+ZT/ybdcmdtuz8+Ev0fig/9WdPBHwg5oKDlT6+iN0oISAzoFSQARAQAB
tC9Bcm5hdWQgRmVycmFyaXMgPGFybmF1ZC5mZXJyYXJpc0Bjb2xsYWJvcmEuY29t
PokCVAQTAQgAPgIbAwULCQgHAwUVCgkICwUWAgMBAAIeAQIXgBYhBHlts5PcP/QC
IrbqItPrtZZruZGWBQJlp4UlBQkMOAKkAAoJENPrtZZruZGW/jsP/iY7xHszgSsL
pmm/Nei09de28i5+KQgOfOFPEIUwY6e+SJDlc0CN5wBEGsiehI+ntDyYXjaQaWzw
ZbZ+iclSvZpINyekIeYFgfCwfraXMQ2rf0Hl1msu5BGZs7nzw9aQyNKRaS7mkMQl
UKZAjV/rqmdrYyQX2b05Pznc/tI8Qj+QDnE097smlqwcPsCLMFjvEpdyt1iVfqM7
rlEjCZR+agb/amAdG9FYDHuUaqhewgB/jVTnA7m19QI1hGDVhZ3pI7DFFQC5+Q7m
4E7snHk9mdnzQKZO+w6DBjRgnRBtiifzlbb3UqTv6yZgVqrL3ENedco7Y1umVyXo
qT4nz5SZ2CdWaEJx00JDQP/P1Fc4KBj40DrKScib2ZzIXVpzej4Ab2S0Kq7UuS/8
fPA8Z7wUwPs4AXrbKZ3pNnh0t5uAWS3sh7IRTvEBquwa9F129EB2HoalJl+fpSJz
0qTCTknrPkMY9KhRcXH43CjXmvvSaqkFs2R0jO01tZBpWUlyfQoJgrqMw4A+Ecmj
Lg2NeVgRNrPaH2hPtdBegcAdKqc6nuBaHZ8m01cVCQw6hC3rceWBx42GeFt8F4we
8LzbAbfo67hXASyWBRHfzt84zoPOy25mpNaIJB/u7/bO+63d64NxuRlZiLvGZxAB
TpLI2pBKeZFwnFMkh4aMvS9P4ymdPdGItCtBcm5hdWQgRmVycmFyaXMgPGFybmF1
ZC5mZXJyYXJpc0BnbWFpbC5jb20+iQJXBBMBCABBAhsDBQsJCAcDBRUKCQgLBRYC
AwEAAh4BAheAAhkBFiEEeW2zk9w/9AIituoi0+u1lmu5kZYFAmWnhSUFCQw4AqQA
CgkQ0+u1lmu5kZaPiQ//XNvt1KG3y47sixZXbPrWTPZmFIDVdLD9Yg2689E58i65
KbrN94KOCaJ8AcLC/KIJDlXiPxY9PW93GuD/+UY5c1ZnJGpbZpHozG8NUyBJ03lm
kfJpP/a3DbXpPepYjzLq48MwJtvsoHl78I9gmVzXEoNyIufaoP6Sxw2Ah8wivHS3
zILuoc1SKJOLwp5ojoWDPr10iUDwax2ajHEN8gupZ1XqJ+SnRLLMn/QVo3iRE1Iz
w5dwdBec0uWk/L7WFiP2o2Zpqvux8f+8l6Q2Fyo9kz4TIS1M/8KBp67jKo/p5mkF
90D4RZzjhg9z/dRT+VnMYVJeN+hkZzzccVafwjFTJqIioPkHTtfRknb0HQL2X1Ku
aK6yiSJlLDiys1Y6HoYexAPRO9GzfU8LecSj4WUiWvBeKtStjuWQGREKNh0zOFJh
EYKesYl7QyHQ3KsgI/3BiOKfVBQfqs/Nj6bHW6RNcoZq9UxuQmoYDhUcdCS8oklG
BskWSiz/r/itAeQ8tVfvCPxpqaGLdAVvvQo/oZP1i6TvveVX/ETlvTWsfyVrEtou
7EbEHvfMUxxZ9Ez/awZpBzF8SUTpyqM7+QZU5iUgG0tHhhOU/Sno47/zDCPT1xaa
XIjEbKKC/Z/EX4ImmEu0Qzt0r8choNvGlBPFGXwFNXw3qVDtuSiJvh6lvLyrIzC0
JEFybmF1ZCBGZXJyYXJpcyA8YXJuYXVkQGZlcnJhcmlzLm1lPokCVAQTAQgAPgIb
AwULCQgHAwUVCgkICwUWAgMBAAIeAQIXgBYhBHlts5PcP/QCIrbqItPrtZZruZGW
BQJlp4UlBQkMOAKkAAoJENPrtZZruZGWRkYP/2quVok8/aQfz2RZ/hIUNOvJQPYE
kHe+GFp2hWayx6BwjNqIKj5SemQLkrJn1Pbb3/SjvQn4o83oR2g1eVKWLWwYSbyV
WOcQNhz2BnQDfWAg2P2B/jtv7pIerMHB8mIMaOrFkCQN6Aqlb1nUJIl7WQyGI4hS
Zn5Mvnn92zv4FKwQEkSQHzm+8TERrVncvoFkpqMObCAK426IMe0zysnUC59YTvJ1
3ho6c26500hv0vu4jjCkKa6KJi6IRqt4bYxMOthmWrMb9DJHFHKQQk7jPnLMbLz8
bTovuwXm6qbtFytUsV6tMCXqFGzG7OQDKYtGP9Iz5fl9bUESOGqyYwZgVI+HHE7m
rsxoBaAi0xsvh4bt5mMTnygUaQO6vLzQjjWbanc95m5Fot7B2ZMzTAlAVg34DMWo
ZlmHHK9yV4sU5xMNYn6kjcDw9ADJWabKhMKGJ5B2gtp2UCsXfS/pGKiJ0k9ElnDx
Y5bexjhxKykCZfgm3OIsMbXI9g4GrKsN50hCznKDMNlHXYcPr4tXEwrRkXLjL9wg
IJezfZL68WnS7ounCZcUFs7w9+HPkVSWCaqugO9sn6L5l3PjKkEIoqVunspC4SIj
HVzovfCujrDeX+dHpRHiVNmGWcK1gRnEakLE7j+yvY3gQdeZNbw8V6qT8nbxp1kb
cXScZZ4o9jFNqurvtC1Bcm5hdWQgRmVycmFyaXMgPGFybmF1ZC5mZXJyYXJpc0Bk
aXNyb290Lm9yZz6JAlQEEwEIAD4CGwMFCwkIBwMFFQoJCAsFFgIDAQACHgECF4AW
IQR5bbOT3D/0AiK26iLT67WWa7mRlgUCZaeFJQUJDDgCpAAKCRDT67WWa7mRlix7
EACFcCnAzBdJVG4bkOOgn3jX7inGhFd0unlNpr6PMc1Hq8X9Wu/M8DdmDYBrGRLQ
TW1H9RDl/fvVIcI1h4E5mNvXeffUMW/QJwWlZu9GD8Zom+Zd6Xabgr1Y7/2amoKe
Nx0Do+EabURkzJzmjqTfaOyJ/fNzrEetmzYkt/3JJqg7aj8I/wrXthNBjJSyIGud
Q75s8wgsKdv5l/wVo5Kf7BbanNebgrmkbB6/kHzk9EXvAKWOi4WGN1sGgf4t7ASm
jI5+q3OG0IaK3LONpHd2LD02KjrIvJZCqMNW/OCGWp6dktEadIl8IEDagKa86VA5
Uq6tyRNbW2gajc740LMysmqUxNMSXWfpmivkpA4O6yJ0G6ioBU6oQBEMKA9MVsXz
/vaLlM7Kx6KX0GT8hAB+SNBs0K5aAKRfLkY1H1fOgo+S3shiPO95dmpQnh3YORfO
cuavzn8l6JOiTjEYGNUmZupo5moHVR9nOP/deXM6P+1dyjYtP2qMc0Anj6HPDLxm
8KbvBdw7RzcKHnEdU7wLGH1CViEvRQlKjYABoOfk097Awubi39xGQzSY1q7kXSPp
EgAkP3NSCTG7DvSLnW963XDs6FeoNV5ek7Kog1iR8qL0uYLAXqLc7D01VQW4ZAFh
rfR87b6+51vce/e/o7pzWXlMzcNRytWBy56Wjjb/sRfPzLQmQXJuYXVkIEZlcnJh
cmlzIDxhZmVycmFyaXNAZGViaWFuLm9yZz6JAlQEEwEIAD4CGwMFCwkIBwMFFQoJ
CAsFFgIDAQACHgECF4AWIQR5bbOT3D/0AiK26iLT67WWa7mRlgUCZaeFJQUJDDgC
pAAKCRDT67WWa7mRlg+5D/4jWn1m+AsQ6RpVnSmgs5v7iNs0wkF3CPdjXw6cnE5h
c48dXC7iL2Hwq+Ol8/KSggWxVpVra2/kIHr/i8yz8qKFletYcD1oVfZootlC1713
mgkcVW4xRkNvIIzqy8WnZZEeuN6ss+Ubnn6XXtfeO+hd0XrnLAHLwgiBZqD2RQaD
eGizGyUlTAu6DPDcHojyii9nVwt0BjpfEgMvh5ree99jyVCuA216dAYtAtlfr14O
4hAbhvgXe1NlbEw/JHBq91fzsdu5t7/SGz4HzKjIYUaARx/e6C2QQO+v/e/Ou0w7
8AnvtLNljsh0AJLRqhkkVjSl4RVFwJQeEtb1jjSfB68o56l5IUoY4mXWaHoDaxXg
iGpEi7lCP/kmS8Z7IwLZwEUAx0lv4D8dvH8XZncObC1pLq1d08G+g3a2eZHsPsz1
iSogOcAOLMEN387sEws9cYD7rPRBHiYW5MUUMgC2ugKtk6A+mZpWoYwR78a83Avw
8j43qMnAVEnQqaOrpTDC+cB/0VsETYMs0ZMYaI3+jrApRmQF+E+qYLzMzAQfPBfY
5F5by3vFiKSQjijwKGPrvhxjxw74I1sm3IflpQg6iQpZJepuscWrtNgrxDIRQiiu
jPWuqwJC1Z3GcJs4+avEcEqwnXYY3/ohhr4hkeNVtrmwtOGuWX+XUXB/TuvzsbjH
ZLkCDQReld6BARAAtsD2sRCCq6jEd3+fE49o/3yGk8c6r+YOOPRzefppDM5dOXzb
ZZFjKcQ0ITDymjQ2IGsmlQbozxkq9MdzWt53+6JThdTFnt/er4YR7DoLAoJaXaWZ
zrulQX1AY1J8LRa9BpXQXxirBUHAuf5TqBRSxeplCYL14XwRHGhZKgV453UUiGCP
+iaN68k21GRrqKzlZQve0WRGWDkvHXrZvzD8rqFzDVqflClzKx3vW+vhltK9araD
/WqwktMFbBOqRbFJwF7Y63uLbBX+gmSAWRvfibEKR7pOKKHmnIWCp2LvijeHMW46
M4XnkUJiwnIrOrGdzp5cBK6GCisx/PLADiUUkpRdg7bsqhByZM7oWcWrkUK9SFdc
2EMVU53IGu0L9fJjgYb0FKGRzG2VJSjJT4LxKH874pupilrjGu8K2RGKZsLuDvob
9HCYnXaJq36o1SVV2Djy+1pZ+gftjEs8e7ZZBKxjs0ap2hVEYeKMxY+TCP6eGhUo
1Z8L4ZvG1oWtuiOKRFdrsEog1j7lDeAwcG4nOR0Qef8zObXSidZPeTVwDEobXSEe
dPeX3PuEYA2F1pUpOBjt9E60au/Y1r8GTOGYtVM3c0KECseAnqzqih7K9iYAHGIT
GdoiCXi2p8XzISj15u4GUjATPUW0fi21EZm1LgZbUb3g9bvltLv4WKFZOY8AEQEA
AYkCNgQYAQgAIAIbDBYhBHlts5PcP/QCIrbqItPrtZZruZGWBQJlp4QJAAoJENPr
tZZruZGW4/gP/1kFhN2BJ9WgF8m/PQ2BFgC3gEoll2tTzAGUT+bGLacwVMC/AofV
Ua29PHoqWYPDb2Hz6D1AoBjnJ/mQqf+MU/i25i0OgbfdIvCzz5YjZTy6ZJgSuewl
3w+n/9J7cEWzZhAaCRlKRHuJg1RB5ZXvkUDuGi8Toy3KU6qHDHNvL2aertWUTT+2
A6tzqlJlEeQtysSBgD7qnPDg5LUWWlilByQZ76s1BBJVXQ2yp0l7a0GxuqD/OMGm
1w6PDT6JzHdgGNAEyl9cVR39Qvsanc3AoXfjWsZieLhrjKI0UGtsvfdcDNXHqdHl
q9+FuXTe4gCqNMg/JDZO94LlONzwhU+UidtPi7W8CxDddzErzsXy8H+P8MvjlNXA
ptYDetew+fVcpu5xqB9s3TPSAOXSAC7izpLHrEaszvGVfMg/KtVqqSsFqct9qYhJ
lv9sNXhB7IEW7F+vA/KjtGndHeuwFtwpk7aS4OfP9wqQTe5dskOeYqqkHBx4cSUg
MRoMwUOMMjmruqv9YtexQmKF30kCNJiWcTkgHMz/pBp5ECpIKOMTDg8lN2lpghBX
wz9YMWZYTy23dKkd/Yd3aN28eQ9eshdZo5va9RoSoTp2K1HuEB+jeyvgzCYdI+1y
M0JsIRB9un9k1HrK+3XmRJrOBhjss0RGw/ctFAWDiJfGBzHXfS/Yw+I1uQINBGN3
UQwBEAC2cppZ9aDUx0uqPgPfr9JXOBEdjMbnA6J6xVa74PVwlfWjDUNg7F2Tnq8d
EwL9F27B8umIgilpPRfx9fq5Hfbe+nY8IITJ26VtVgoDyraEgteUgCYdiq0ibJCc
qx0mS7j+vtixOuuZCCSlwfqPhObjffNNEZeIki3vrDSElSFAFgCoF/pzbBGKbEXJ
PqjaQR9hNMvSMu1bk0LRopTjgxF0RyT5iJ/LuYMR4oDSeLjHxeVS8qugBYEkAFRs
ert7eMWVHP/D+sumkZ6L+kdeYFeN6hKysajxj78nB2x28u16dkYj6lR2ieSFl4tB
oUyKeRU8QwLI2VnxgAoxPljDzRybXrx0BB6pEPMNW6igXyFWGnjnrIxaDUZG6+5Z
/UXb7MggPkc4Q2PKqR9vsb26c54Jfk2L4/LqedoslS5LAKKUtONgWflagNijhGmJ
P3BcGoPMSYv3OzG1sHVHSv4mHf4XlsuvTwt1FsZkNfAyDAQm1ghvgBd0CoLYgJU4
Al/IGlj9/rfhAss5yo9nwAdWzDs7pS1B8mRp6aVhd9lPSvdGgi/86ZUld6SW1nXt
+i2RNCdwtxlehQsbq25Pqd15WcnR9KSEUcML2hbs5CB4jJ3xGMAitYQ4/f9gZ/TS
5wxrVquXVV0ZRcj+uozZq3R6k3fBIhzWr53SMKMbDMzAM03tHQARAQABiQI2BBgB
CAAgFiEEeW2zk9w/9AIituoi0+u1lmu5kZYFAmN3UQwCGyAACgkQ0+u1lmu5kZZg
jRAAj2cejM77Zemqdr0DcM3VoGb/76+NEGtP8cv9VJSwixGP3FL6E5Ua49UsZdjd
SmOnf1vssM5uL+HvvMvNoam9dBTGv1Ige8pss8PhZY+BEGt5bWnOD9sYxnv2YlcS
DkRz2f9oNn69tzCll1BHsLFKn/j9+oaJ8XnVszl/nlE7qOLmOG4jMbnGT5fqBfZP
OIhJ+aqlbilNWnBG2A5qZ5zdZyATWyUhukXkpHyXT+1VdSqDEuj8bChjEnvKis3B
WJxHROzCPxd/mfZElNWWaeWrL1L96T290jdFRzaOeRfxtY1eHE9D9K/lVMjru8QO
D9Bl0ThO6QI2L3B+JYmYj42GbN/47IqTQTV7zr9l9pUuXuUMCs943Jy6dVUllt4v
bjs4VmXSWXFnD7urP/vywGXzWTaCY0i8mKVS2m06C48kUTOViKUHAzjYlcTdIIq/
FlVgClX7NyheJpBHurBmgnNhSmLuuB9Tzasr2TzOz44pF5F1xHmK3v/s5tUGhSF4
4gqfxPPj8rypRbS2rjHAOH8bNjbLZuHYkD1i+n6IN6KxTUFl0xKxfVnxKAwnYM08
7xSN3JKQdiYiW53rWQR89tS+itebKJXJHmS1jRBwDTyipYY8zYEIjfEjpHMl/EEv
sjmq56N+zmYbUDZNQmFtzkMdGZ3948p6CUcTJYvyoco0iqQ=
=jOaK
-----END PGP PUBLIC KEY BLOCK-----
